packages/core/src/svgs/bitci.svg

<svg width="24" height="24" viewBox="0 0 24 24" fill="none" xmlns="http://www.w3.org/2000/svg">
<g clip-path="url(#clip0_31_7034)">
<path d="M0 0H24V24H0V0Z" fill="#FF4802"/>
<path fill-rule="evenodd" clip-rule="evenodd" d="M8.14275 5.14307H10.2856V5.57164H11.5713V5.14307H13.7142V5.58021C14.3787 5.62486 15.0129 5.87484 15.5292 6.29557C16.0455 6.71631 16.4183 7.28703 16.5962 7.92885C16.7741 8.57067 16.7482 9.2519 16.5221 9.87837C16.296 10.5048 15.8809 11.0456 15.3342 11.4259C16.1103 11.751 16.7499 12.3347 17.1444 13.0779C17.5389 13.8211 17.664 14.6779 17.4984 15.5029C17.3328 16.3278 16.8867 17.07 16.236 17.6034C15.5852 18.1367 14.7699 18.4284 13.9285 18.4288H13.7142V18.8574H11.5713V18.4288H10.2856V18.8574H8.14275V18.4288H6.42847L8.9999 15.4288H7.71418V8.57164H8.9999L6.42847 5.57164H8.14275V5.14307ZM10.2856 8.14307H12.4285C12.5973 8.14307 12.7645 8.17632 12.9205 8.24094C13.0765 8.30555 13.2182 8.40025 13.3376 8.51964C13.457 8.63903 13.5517 8.78077 13.6163 8.93676C13.6809 9.09275 13.7142 9.25994 13.7142 9.42878C13.7142 9.59762 13.6809 9.76481 13.6163 9.9208C13.5517 10.0768 13.457 10.2185 13.3376 10.3379C13.2182 10.4573 13.0765 10.552 12.9205 10.6166C12.7645 10.6812 12.5973 10.7145 12.4285 10.7145H10.2856V8.14307ZM10.2856 12.8574H13.4999C13.8977 12.8574 14.2793 13.0154 14.5606 13.2967C14.8419 13.578 14.9999 13.9595 14.9999 14.3574C14.9999 14.7552 14.8419 15.1367 14.5606 15.418C14.2793 15.6993 13.8977 15.8574 13.4999 15.8574H10.2856V12.8574Z" fill="white"/>
</g>
<defs>
<clipPath id="clip0_31_7034">
<rect width="24" height="24" fill="white"/>
</clipPath>
</defs>
</svg>

<svg xmlns="http://www.w3.org/2000/svg" width="24" height="24" fill="none" viewBox="0 0 24 24"><g clip-path="url(#a)"><path fill="#FF4802" d="M0 0h24v24H0z"/><path fill="#fff" fill-rule="evenodd" d="M8.143 5.143h2.143v.429h1.285v-.429h2.143v.437a3.214 3.214 0 0 1 1.62 5.846 3.643 3.643 0 0 1-1.405 7.003h-.215v.428h-2.143v-.428h-1.285v.428H8.143v-.428H6.428l2.572-3H7.714V8.572H9l-2.572-3h1.715zm2.143 3h2.143a1.286 1.286 0 0 1 0 2.571h-2.143zm0 4.714H13.5a1.5 1.5 0 1 1 0 3h-3.214z" clip-rule="evenodd"/></g><defs><clipPath id="a"><path fill="#fff" d="M0 0h24v24H0z"/></clipPath></defs></svg>
